apps/site/public/icons/technologies/ts.svg

<svg xmlns="http://www.w3.org/2000/svg" fill="none" viewBox="0 0 41 41" height="135" width="135"><path fill="#3178C6" d="M36.1641 0.0703125H3.97656C1.8192 0.0703125 0.0703125 1.8192 0.0703125 3.97656V36.1641C0.0703125 38.3214 1.8192 40.0703 3.97656 40.0703H36.1641C38.3214 40.0703 40.0703 38.3214 40.0703 36.1641V3.97656C40.0703 1.8192 38.3214 0.0703125 36.1641 0.0703125Z"></path><path fill="#3178C6" d="M36.1641 0.0703125H3.97656C1.8192 0.0703125 0.0703125 1.8192 0.0703125 3.97656V36.1641C0.0703125 38.3214 1.8192 40.0703 3.97656 40.0703H36.1641C38.3214 40.0703 40.0703 38.3214 40.0703 36.1641V3.97656C40.0703 1.8192 38.3214 0.0703125 36.1641 0.0703125Z"></path><path fill="white" d="M24.8312 31.9003V35.8113C25.467 36.1373 26.2189 36.3816 27.087 36.5446C27.9552 36.7076 28.8701 36.7891 29.832 36.7891C30.7694 36.7891 31.6598 36.6995 32.5035 36.5202C33.3472 36.3409 34.087 36.0455 34.7227 35.6341C35.3585 35.2227 35.8619 34.6848 36.2327 34.0208C36.6036 33.3567 36.7891 32.5359 36.7891 31.5581C36.7891 30.8492 36.6831 30.228 36.4712 29.6943C36.2592 29.1606 35.9536 28.686 35.5541 28.2705C35.1548 27.8549 34.6759 27.4821 34.1175 27.1521C33.5591 26.8221 32.9295 26.5105 32.2284 26.2172C31.7149 26.0053 31.2544 25.7996 30.8468 25.6C30.4392 25.4003 30.0928 25.1966 29.8075 24.9889C29.5222 24.7811 29.3021 24.5611 29.1473 24.3289C28.9924 24.0966 28.9149 23.8339 28.9149 23.5405C28.9149 23.2717 28.9842 23.0293 29.1228 22.8134C29.2614 22.5974 29.457 22.4121 29.7097 22.2573C29.9624 22.1025 30.2721 21.9823 30.6389 21.8967C31.0058 21.8112 31.4133 21.7684 31.8616 21.7684C32.1877 21.7684 32.532 21.7929 32.8948 21.8417C33.2575 21.8906 33.6223 21.966 33.9891 22.0678C34.3559 22.1697 34.7125 22.298 35.059 22.4528C35.4054 22.6077 35.7253 22.7869 36.0188 22.9906V19.3363C35.4238 19.1081 34.7737 18.9391 34.0686 18.8291C33.3635 18.7191 32.5545 18.6641 31.6416 18.6641C30.7123 18.6641 29.832 18.7639 29.0005 18.9635C28.1691 19.1631 27.4376 19.4748 26.8058 19.8984C26.1741 20.3222 25.6748 20.862 25.308 21.5179C24.9412 22.1737 24.7578 22.958 24.7578 23.8705C24.7578 25.0357 25.0941 26.0298 25.7666 26.8527C26.439 27.6756 27.4599 28.3723 28.8294 28.9427C29.3673 29.1627 29.8687 29.3785 30.3333 29.5904C30.7979 29.8023 31.1994 30.0223 31.5376 30.2504C31.8759 30.4785 32.1428 30.727 32.3385 30.9959C32.5341 31.2648 32.632 31.5703 32.632 31.9126C32.632 32.1652 32.5708 32.3994 32.4485 32.6153C32.3263 32.8312 32.1408 33.0186 31.8922 33.1775C31.6436 33.3364 31.3338 33.4606 30.963 33.5502C30.592 33.6399 30.158 33.6847 29.6608 33.6847C28.813 33.6847 27.9735 33.536 27.142 33.2386C26.3106 32.9412 25.5403 32.4952 24.8312 31.9003ZM18.2563 22.2642H23.2734V19.0547H9.28906V22.2642H14.2817V36.5547H18.2563V22.2642Z" clip-rule="evenodd" fill-rule="evenodd"></path></svg>

<svg xmlns="http://www.w3.org/2000/svg" width="135" height="135" fill="none" viewBox="0 0 41 41"><path fill="#3178c6" d="M36.164.07H3.977A3.906 3.906 0 0 0 .07 3.977v32.187a3.906 3.906 0 0 0 3.907 3.906h32.187a3.906 3.906 0 0 0 3.906-3.906V3.977A3.906 3.906 0 0 0 36.164.07"/><path fill="#3178c6" d="M36.164.07H3.977A3.906 3.906 0 0 0 .07 3.977v32.187a3.906 3.906 0 0 0 3.907 3.906h32.187a3.906 3.906 0 0 0 3.906-3.906V3.977A3.906 3.906 0 0 0 36.164.07"/><path fill="#fff" fill-rule="evenodd" d="M24.831 31.9v3.911q.954.489 2.256.734 1.302.244 2.745.244 1.406 0 2.672-.269 1.265-.27 2.219-.886a4.5 4.5 0 0 0 1.51-1.613q.555-.996.556-2.463 0-1.063-.318-1.864a4.4 4.4 0 0 0-.917-1.424 6.7 6.7 0 0 0-1.437-1.118 15 15 0 0 0-1.889-.935 24 24 0 0 1-1.381-.617 7 7 0 0 1-1.04-.611 2.7 2.7 0 0 1-.66-.66 1.4 1.4 0 0 1-.232-.788q0-.404.208-.728.207-.323.587-.556.378-.233.929-.36a5.4 5.4 0 0 1 1.223-.129q.489 0 1.033.074.543.073 1.094.226.55.153 1.07.385.519.232.96.538v-3.655a9.5 9.5 0 0 0-1.95-.507 16 16 0 0 0-2.427-.165q-1.395 0-2.642.3-1.246.299-2.194.934a4.7 4.7 0 0 0-1.498 1.62q-.55.984-.55 2.352 0 1.749 1.009 2.983 1.008 1.235 3.062 2.09.807.33 1.504.647.697.318 1.205.66.507.343.8.746t.294.917q0 .378-.183.702a1.6 1.6 0 0 1-.557.563 3 3 0 0 1-.929.372q-.556.135-1.302.135a7.52 7.52 0 0 1-4.83-1.784m-6.575-9.636h5.017v-3.21H9.29v3.21h4.993v14.29h3.974z" clip-rule="evenodd"/></svg>
